%
O94688 (Duran-bishopManualForCncSim)
T0303 (call & set up tool #3: X-Z- ,off tool)
G54 
M03 (turn spindle)
S1200 (RPM = [4 * CS cutting speed]/[diameter] = [4 x 300]/[1 in] = 1200)
G96
G50 S4000 (upper limit)
M08 (turn coolent on)
G00 Z.100 X1. (S) (program 0, !!!X is diameter!!!)
G71 P10 (line number)
Q1 D.035 (depth of cut)
U.010 (finishing: roughing pass, extra on X)
W.005 (finishing: for next tool to cut on Z)
F.010 (feed [in/rev])
N10 (* Define the profile of the bishop *)
M03 S1200 (turn spindle at 1200 RPM initially)
G00 Z.100 X.0 G42 (P: rapid move w/nose R compensation, !!!X is diameter!!!)
G01 Z.0 F.010 (P1)
G01 X.238 (P2)
G03 Z-.078 X.394 R.078 (P3, X = .238 + 2*.078)
G01 Z-.158 (P4)
G02 Z-.236 X.550 R.078 (P5, X = .394 + 2*.078)
G01 Z-.433 (P6)
G01 Z-.630 X.394 (P7)
G01 Z-1.221 (P8)
G02 Z-1.378 X.708 R.157 (P9)
G01 Z-1.417 X.788 (P10)
G01 Z-1.517 (P11)
G01 Z-1.595 X.708 (P12)
G01 Z-1.673 X.788 (P13)
G01 Z-1.772 (P14)
N20 G00 Z-1.772 X.988 G40 (Q, X = .788 + 2*.100 buffer, close G42)
G00 (G53) X.0 (go home: milling machine, pull X first)
(G53) Z.0 (pull Z first next, use machine 0 as reference)
T0202 (finish turn, X+Z-, off tool)
G54 
M03 (turn spindle)
S1200 (RPM = [4 * CS cutting speed]/[diameter] = [4 x 300]/[1 in] = 1200)
G96
G50 S4000 (upper limit)
M08 (turn coolent on)
G00 Z.100 X1. (S) (!!!X is diameter!!!)
G70 P10 Q2
G00 X1.
G00 (G53) X.0 (go home: milling machine, pull X first)
(G53) Z.0 (pull Z first next, use machine 0 as reference)
T0707 (parting tool for drilling, Z-, tool edge)
G54
M03 (turn spindle)
S1200 (RPM = [4 * CS cutting speed]/[diameter] = [4 x 300]/[1 in] = 1200)
G96
G50 S4000 (upper limit)
M08 (turn coolent on)
G00 Z-1.772 X1.3 (S) (!!!X is diameter!!!)
G01 X.200 F.002 (parts catcher: go slow - small feed)
M36 (call parts catcher ON)
G04 P1.5 (devolved delay [s])
M37 (parts catcher OFF)
M09 (turn off coolent)
G00 (G53) X.0 (go home: milling machine, pull X first)
(G53) Z.0 (pull Z first next, use machine 0 as reference, which will shut off coolent)
M30 (end of program)
%